media/images/addToFav.svg

<svg width="30" height="30" viewBox="0 0 30 30" fill="none" xmlns="http://www.w3.org/2000/svg">
<circle cx="15" cy="15" r="15" fill="#F4F4F4"/>
<path d="M15.4 24C15.1605 24 14.9308 23.9087 14.7503 23.7401C14.0711 23.1043 13.4181 22.5071 12.8406 21.9802L12.8373 21.9767C11.1442 20.4347 9.68406 19.0999 8.66688 17.7862C7.52828 16.3179 7 14.9269 7 13.4059C7 11.9271 7.4725 10.5642 8.33219 9.56663C9.20172 8.55499 10.3961 8 11.6922 8C12.6634 8 13.5494 8.32667 14.3303 8.97651C14.7241 9.30318 15.0817 9.70362 15.3967 10.1708C15.7117 9.70362 16.0694 9.30318 16.4631 8.97651C17.2506 8.32667 18.1366 8 19.1078 8C20.4039 8 21.5983 8.55499 22.4678 9.56663C23.3275 10.5642 23.8 11.9271 23.8 13.4059C23.8 14.9269 23.2717 16.3179 22.1331 17.7862C21.1159 19.0999 19.6558 20.4347 17.9627 21.9767C17.3852 22.5036 16.7289 23.1008 16.0497 23.7401C15.8692 23.9087 15.6395 24 15.4 24ZM11.6922 9.05379C10.675 9.05379 9.73656 9.48935 9.05734 10.2797C8.365 11.0841 7.98438 12.1941 7.98438 13.4059C7.98438 14.6845 8.42734 15.8296 9.42484 17.1153C10.3863 18.3587 11.8202 19.6654 13.4772 21.1759L13.4805 21.1794C14.0613 21.7098 14.7175 22.3069 15.4 22.9462C16.0891 22.3034 16.7453 21.7063 17.3261 21.1759C18.9831 19.6619 20.4138 18.3587 21.3784 17.1153C22.3727 15.8296 22.8189 14.6845 22.8189 13.4059C22.8189 12.1941 22.4383 11.0841 21.7459 10.2797C21.0634 9.48935 20.125 9.05379 19.1078 9.05379C18.3597 9.05379 17.6739 9.3067 17.0702 9.809C16.532 10.2551 16.1547 10.8206 15.9348 11.2141C15.82 11.4178 15.6231 11.5372 15.4 11.5372C15.1769 11.5372 14.98 11.4143 14.8652 11.2141C14.6453 10.8171 14.268 10.2551 13.7298 9.809C13.1261 9.3067 12.4403 9.05379 11.6922 9.05379Z" fill="#333333"/>
</svg>

<svg width="30" height="30" fill="none" xmlns="http://www.w3.org/2000/svg"><circle cx="15" cy="15" r="15" fill="#F4F4F4"/><path d="M15.4 24a.948.948 0 0 1-.65-.26 191.57 191.57 0 0 0-1.91-1.76l-.003-.003c-1.693-1.542-3.153-2.877-4.17-4.19C7.528 16.316 7 14.926 7 13.405c0-1.479.473-2.842 1.332-3.84C9.202 8.556 10.396 8 11.692 8c.971 0 1.857.327 2.638.977.394.326.752.727 1.067 1.194a5.636 5.636 0 0 1 1.066-1.194c.788-.65 1.674-.977 2.645-.977 1.296 0 2.49.555 3.36 1.567.86.997 1.332 2.36 1.332 3.839 0 1.52-.528 2.912-1.667 4.38-1.017 1.314-2.477 2.649-4.17 4.19-.578.528-1.234 1.125-1.913 1.764a.948.948 0 0 1-.65.26zM11.692 9.054a3.438 3.438 0 0 0-2.635 1.226c-.692.804-1.073 1.914-1.073 3.126 0 1.278.443 2.424 1.44 3.71.962 1.243 2.396 2.55 4.053 4.06l.003.003c.581.53 1.237 1.128 1.92 1.767.69-.643 1.345-1.24 1.926-1.77 1.657-1.514 3.088-2.817 4.052-4.06.995-1.286 1.44-2.431 1.44-3.71 0-1.212-.38-2.322-1.072-3.126-.683-.79-1.621-1.226-2.638-1.226-.748 0-1.434.253-2.038.755-.538.446-.915 1.012-1.135 1.405a.608.608 0 0 1-.535.323.615.615 0 0 1-.535-.323c-.22-.397-.597-.959-1.135-1.405-.604-.502-1.29-.755-2.038-.755z" fill="#333"/></svg>
